X: 071
M: C|
L: 1/8
K: Bb
V: 1
|: f- |\
fdfb fdBd | Tc>Bcd cGGf- |\
fdfb fdBd | Tc>Bcd B/B/B B :|
V: 2 clef=bass middle=d
z |\
z | b2b2
b2b2 | c'2c'2 c'2c'2 |\
b2b2 b2b2 | f2f2 B2B :|

